X: 121007
T: The LASS O' PATIES MILL
P: Same figure.
%R: reel
B: James Kerr "Merry Melodies" v.1 p.21 s.0 #7
Z: 2017 John Chambers <jc:trillian.mit.edu>
M: 2/4
L: 1/16
K: D
uA2 |\
GFED F2A2 | d3e f2A2 |\
Bcdc BAGF | (F4 E2)A2 |\
GFED F2A2 | d3e f2A2 |\
BcdB cdec | d4- d2 |]
|: uf2 |\
gfed dcBA | d3e f2A2 |\
Bcdc BAGF | (F4 E2)A2 |\
GFED F2A2 | d3e f2A2 |\
BcdB cdec | d4  d2 :|

%%sep 1 1 500
%%sep 1 1 500

